X: 2470
T: Ballybunion, The
R: jig
M: 6/8
K: Gmajor
|:G3 g2e|dBG AGE|GFG g2e|dBG A3|
GGG g2e|dBG GAB|cde dBG|1 ABA AGE:|2 ABA A2 B||
|:eBe gbg|eBe gbg|eBe g2a|bag agf|
eBe gbg|eBe g2a|bag agf|1 gee e2B:|2 gee edB|G6||

